X:590
T:Reel 590
M:4/4
K:Dmaj
L:1/8
D>F (3FEF A>F (3FEF |G>F (3EEE B2E2||F>F (3FEF A>F (3FEF |GE2D FGABc2:||2F2dA A2dF|E>D (3EDE FDD2|A>d (3dcd A>D (3DDD |BdAF BFAF| (3BcB A2 BdAF| (3EFE FA EDFA| (3dcB A>F  (3FFF A>F (3FEF |G>E (3EDE B>E (3EDE |B>c (3cdc d>A (3FGA |B>E (3EDE B>D (3DED |
